packages/calcite-ui-icons/icons/link-chart-apply-to-16.svg

<?xml version="1.0" encoding="UTF-8"?><svg id="icons" xmlns="http://www.w3.org/2000/svg" viewBox="0 0 16 16"><defs><style>.cls-1{fill:none;}</style></defs><path d="M2.30542,5.76221l1.76331,1.31396c-.04041.13556-.05872.27625-.05872.4248,0,.82715.66284,1.5,1.48999,1.5.00433,0,.00836-.00122.0127-.00128.33606-.44391.81317-.77002,1.3678-.91272.07678-.18018.11951-.37811.11951-.586,0-.82715-.67285-1.5-1.5-1.5-.31409,0-.60522.09778-.84644.26343l-1.69794-1.2644h3.13617c.20679.58124.7569,1.00098,1.4082,1.00098.82715,0,1.5-.67285,1.5-1.5s-.67285-1.5-1.5-1.5c-.65063,0-1.20026.41876-1.40759.99902h-3.07062l1.63318-1.26129c.24091.16498.53162.26227.84503.26227.82715,0,1.5-.67285,1.5-1.5S6.32715.00098,5.5.00098s-1.48999.67285-1.48999,1.5c0,.14923.01855.29059.05933.4267l-1.72699,1.33337c-.24036-.16382-.53015-.26007-.84235-.26007-.82715,0-1.5.67285-1.5,1.5s.67285,1.5,1.5,1.5c.29694,0,.57227-.08936.80542-.23877ZM5,7h1v1h-1v-1ZM7,4h1v1h-1v-1ZM5,1h1v1h-1v-1ZM4,10.82495l2.05817,1.67603-2.05817,1.67603v-1.17603h-.5c-1.37891,0-2.5-1.12158-2.5-2.5v-.5h1v.5c0,.82715.67285,1.5,1.5,1.5h.5v-1.17603ZM15,13.0918v-3.18359c.58124-.2066.98999-.75604.98999-1.4082,0-.82843-.66156-1.5-1.48999-1.5-.40424,0-.76953.16168-1.03925.42163l-1.47906-.73969c.00739-.0603.01831-.11963.01831-.18195,0-.82843-.67157-1.5-1.5-1.5s-1.5.67157-1.5,1.5c0,.30939.09393.59668.25446.83551l-1.29718,1.74304c-.14502-.04669-.29675-.07855-.45728-.07855-.82843,0-1.5.67157-1.5,1.5s.67157,1.5,1.5,1.5c.11584,0,.22742-.01599.33575-.04083l.45416.66125c-.18036.24762-.28992.54987-.28992.87958,0,.82843.67157,1.5,1.5,1.5.54712,0,1.02112-.29602,1.28308-.73358l2.23853.448c.10486.72595.72339,1.28558,1.47839,1.28558.82843,0,1.48999-.67157,1.48999-1.5,0-.65216-.40875-1.2016-.98999-1.4082ZM8,11h-1v-1h1v1ZM11.53906,7.57849l1.47931.73938c-.00739.06036-.01837.11975-.01837.18213,0,.12689.02045.24799.05011.36566l-.65527.43683c-.21368-.16003-.47021-.2608-.75061-.28796l-.31622-1.26489c.07581-.05035.14581-.10822.21106-.17114ZM11,10h1v1h-1v-1ZM9.87994,12.05457c-.12207-.03204-.24786-.05457-.37994-.05457-.13409,0-.2616.02319-.38531.05621l-.43732-.63696c.09302-.1189.16888-.25.2229-.3938l1.1958-.01172c.05328.14539.12811.27869.22119.39899l-.43732.64185ZM10.08759,10.01373l-1.17157.01147c-.04083-.12164-.09222-.2381-.16119-.34363l1.30646-1.75439c.09479.02917.19275.04846.29443.05829l.31622,1.26489c-.27191.18054-.47614.44922-.58435.76337ZM13.21716,13.73322l-2.23871-.44733c-.0365-.25342-.1344-.48492-.28107-.68085l.43677-.65521c.11774.02966.23895.05017.36584.05017.16577,0,.32239-.03326.47144-.08295l1.28632,1.74237c-.01575.02313-.02612.04968-.04059.07379ZM12.74811,11.33075c.15869-.23792.25189-.52332.25189-.83075,0-.12695-.02051-.24817-.05017-.36584l.65521-.43677c.11945.08948.25177.15991.39496.21082v3.09155l-1.25189-1.66901ZM15,15h-1v-1h1v1Z"/><rect class="cls-1" width="16" height="16"/></svg>

<svg xmlns="http://www.w3.org/2000/svg" viewBox="0 0 16 16"><path d="M2.305 5.762L4.07 7.076a1.49 1.49 0 0 0-.059.425c0 .827.663 1.5 1.49 1.5L5.513 9c.336-.444.813-.77 1.367-.913A1.502 1.502 0 0 0 5.5 6.001a1.49 1.49 0 0 0-.846.263L2.956 5h3.136A1.498 1.498 0 0 0 7.5 6.001c.827 0 1.5-.673 1.5-1.5s-.673-1.5-1.5-1.5A1.5 1.5 0 0 0 6.092 4h-3.07l1.633-1.261A1.502 1.502 0 0 0 7 1.5C7 .673 6.327 0 5.5 0S4.01.673 4.01 1.5c0 .15.019.29.06.427L2.341 3.26A1.502 1.502 0 0 0 0 4.501c0 .827.673 1.5 1.5 1.5.297 0 .572-.09.805-.239zM5 7h1v1H5V7zm2-3h1v1H7V4zM5 1h1v1H5V1zm-1 9.825L6.058 12.5 4 14.177v-1.176h-.5a2.503 2.503 0 0 1-2.5-2.5v-.5h1v.5c0 .827.673 1.5 1.5 1.5H4v-1.176zm11 2.267V9.908c.581-.206.99-.756.99-1.408a1.491 1.491 0 0 0-2.53-1.078l-1.478-.74c.007-.06.018-.12.018-.182a1.5 1.5 0 1 0-2.746.836L7.957 9.079A1.484 1.484 0 0 0 7.5 9a1.5 1.5 0 1 0 0 3c.116 0 .227-.016.336-.04l.454.66c-.18.248-.29.55-.29.88A1.5 1.5 0 0 0 9.5 15c.547 0 1.021-.296 1.283-.734l2.239.448a1.491 1.491 0 0 0 2.968-.214c0-.652-.409-1.202-.99-1.408zM8 11H7v-1h1v1zm3.54-3.422l1.478.74c-.007.06-.018.12-.018.182 0 .127.02.248.05.366l-.655.436c-.214-.16-.47-.26-.75-.287l-.317-1.265c.076-.05.146-.109.211-.171zM11 10h1v1h-1v-1zm-1.12 2.055A1.488 1.488 0 0 0 9.5 12a1.48 1.48 0 0 0-.385.056l-.438-.637c.093-.119.17-.25.223-.394l1.196-.011c.053.145.128.278.221.399l-.437.642zm.208-2.041l-1.172.011a1.492 1.492 0 0 0-.161-.343l1.306-1.755c.095.03.193.049.295.058l.316 1.265c-.272.18-.476.45-.584.764zm3.13 3.72l-2.24-.448a1.484 1.484 0 0 0-.28-.681l.436-.655c.118.03.24.05.366.05.166 0 .322-.033.471-.083l1.287 1.742c-.016.024-.026.05-.04.074zm-.47-2.403c.159-.238.252-.524.252-.831 0-.127-.02-.248-.05-.366l.655-.437c.12.09.252.16.395.211V13l-1.252-1.67zM15 15h-1v-1h1v1z"/><path fill="none" d="M0 0h16v16H0z"/></svg>
